src/icons/memchache.svg

<?xml version="1.0" encoding="UTF-8"?>
<svg xmlns="http://www.w3.org/2000/svg" xmlns:xlink="http://www.w3.org/1999/xlink" width="32" height="32" viewBox="0 0 32 32" version="1.1">
<defs>
<linearGradient id="linear0" gradientUnits="userSpaceOnUse" x1="0.5" y1="1" x2="0.5" y2="0" gradientTransform="matrix(31.03125,0,0,31.03125,0,0)">
<stop offset="0" style="stop-color:rgb(34.117648%,29.803923%,29.019609%);stop-opacity:1;"/>
<stop offset="1" style="stop-color:rgb(50.196081%,44.313726%,42.745098%);stop-opacity:1;"/>
</linearGradient>
<linearGradient id="linear1" gradientUnits="userSpaceOnUse" x1="0.8869" y1="0.9839" x2="0.3012" y2="-0.0868" gradientTransform="matrix(19.507812,0,0,18.714844,5.765625,5.851562)">
<stop offset="0" style="stop-color:rgb(14.901961%,55.29412%,51.372552%);stop-opacity:1;"/>
<stop offset="1" style="stop-color:rgb(18.039216%,63.137257%,61.960787%);stop-opacity:1;"/>
</linearGradient>
<radialGradient id="radial0" gradientUnits="userSpaceOnUse" cx="0.41" cy="0.43" fx="0.41" fy="0.43" r="0.5" gradientTransform="matrix(2.257812,0,0,2.253906,12.320312,22.3125)">
<stop offset="0" style="stop-color:rgb(85.882354%,48.627451%,48.627451%);stop-opacity:1;"/>
<stop offset="1" style="stop-color:rgb(78.431374%,21.568628%,21.568628%);stop-opacity:1;"/>
</radialGradient>
<radialGradient id="radial1" gradientUnits="userSpaceOnUse" cx="0.44" cy="0.43" fx="0.44" fy="0.43" r="0.5" gradientTransform="matrix(2.253906,0,0,2.253906,16.460938,22.3125)">
<stop offset="0" style="stop-color:rgb(85.882354%,48.627451%,48.627451%);stop-opacity:1;"/>
<stop offset="1" style="stop-color:rgb(78.431374%,21.568628%,21.568628%);stop-opacity:1;"/>
</radialGradient>
<filter id="alpha" filterUnits="objectBoundingBox" x="0%" y="0%" width="100%" height="100%">
  <feColorMatrix type="matrix" in="SourceGraphic" values="0 0 0 0 1 0 0 0 0 1 0 0 0 0 1 0 0 0 1 0"/>
</filter>
<mask id="mask0">
  <g filter="url(#alpha)">
<rect x="0" y="0" width="32" height="32" style="fill:rgb(0%,0%,0%);fill-opacity:0.1;stroke:none;"/>
  </g>
</mask>
<clipPath id="clip1">
  <rect x="0" y="0" width="32" height="32"/>
</clipPath>
<g id="surface5" clip-path="url(#clip1)">
<path style=" stroke:none;fill-rule:nonzero;fill:rgb(0%,0%,0%);fill-opacity:1;" d="M 24.109375 6.171875 C 24.800781 10.828125 24.960938 15.296875 24.949219 18.628906 C 24.933594 22.03125 24.738281 24.246094 24.738281 24.246094 L 20.726562 24.246094 L 20.292969 24.570312 L 25.0625 24.570312 C 25.0625 24.570312 25.859375 15.519531 24.335938 5.851562 Z M 11.476562 6.054688 C 12.730469 7.445312 14.898438 11.144531 15.195312 11.144531 C 14.398438 10.128906 12.449219 6.886719 11.476562 6.054688 Z M 9.691406 10.769531 C 8.335938 10.808594 9.964844 21.832031 10.417969 24.246094 L 6.253906 24.246094 L 5.972656 24.570312 L 10.738281 24.570312 C 10.289062 22.167969 8.675781 11.242188 9.992188 11.09375 C 9.871094 10.910156 9.765625 10.78125 9.691406 10.769531 Z M 20.699219 10.769531 C 19.976562 10.886719 16.660156 20.125 16.660156 20.125 C 16.660156 20.125 15.929688 20.035156 15.195312 20.035156 C 14.839844 20.035156 14.488281 20.050781 14.132812 20.082031 L 14.054688 20.449219 C 14.054688 20.449219 14.785156 20.355469 15.519531 20.355469 C 16.253906 20.355469 16.984375 20.449219 16.984375 20.449219 C 16.984375 20.449219 20.273438 11.269531 21.015625 11.09375 C 20.933594 10.890625 20.835938 10.773438 20.703125 10.769531 Z M 20.699219 10.769531 "/>
</g>
<mask id="mask1">
  <g filter="url(#alpha)">
<rect x="0" y="0" width="32" height="32" style="fill:rgb(0%,0%,0%);fill-opacity:0.3;stroke:none;"/>
  </g>
</mask>
<clipPath id="clip2">
  <rect x="0" y="0" width="32" height="32"/>
</clipPath>
<g id="surface8" clip-path="url(#clip2)">
<path style=" stroke:none;fill-rule:nonzero;fill:rgb(100%,100%,100%);fill-opacity:1;" d="M 6.699219 5.851562 C 5.175781 15.519531 5.972656 24.566406 5.972656 24.566406 L 6.253906 24.253906 C 6.109375 22.117188 5.726562 14.394531 7.023438 6.175781 L 11.4375 6.175781 C 11.53125 6.175781 11.65625 6.25 11.800781 6.375 C 11.511719 6.054688 11.269531 5.851562 11.113281 5.851562 Z M 19.921875 5.851562 C 19.082031 5.859375 15.886719 11.46875 15.519531 11.46875 C 15.667969 11.660156 15.789062 11.792969 15.839844 11.792969 C 16.207031 11.792969 19.40625 6.183594 20.246094 6.175781 L 24.140625 6.175781 L 24.335938 5.851562 Z M 10.316406 11.417969 C 11.386719 13.027344 14.054688 20.449219 14.054688 20.449219 L 14.132812 20.085938 C 13.472656 18.28125 10.964844 11.515625 10.335938 11.417969 C 10.328125 11.417969 10.324219 11.417969 10.316406 11.417969 Z M 21.347656 11.417969 C 22.066406 13.25 20.703125 22.398438 20.296875 24.566406 L 20.730469 24.230469 C 21.28125 20.992188 22.609375 11.449219 21.347656 11.417969 Z M 21.347656 11.417969 "/>
</g>
</defs>
<g id="surface1">
<path style=" stroke:none;fill-rule:nonzero;fill:url(#linear0);" d="M 0 20.96875 L 0 10.0625 C 0 1.257812 1.257812 0 10.054688 0 L 20.976562 0 C 29.773438 0 31.03125 1.257812 31.03125 10.0625 L 31.03125 20.96875 C 31.03125 29.773438 29.773438 31.03125 20.976562 31.03125 L 10.054688 31.03125 C 1.257812 31.03125 0 29.773438 0 20.96875 Z M 0 20.96875 "/>
<path style=" stroke:none;fill-rule:nonzero;fill:url(#linear1);" d="M 6.699219 5.851562 C 5.175781 15.519531 5.972656 24.566406 5.972656 24.566406 L 10.738281 24.566406 C 10.285156 22.15625 8.660156 11.128906 10.011719 11.09375 C 10.738281 11.207031 14.054688 20.445312 14.054688 20.445312 C 14.054688 20.445312 14.78125 20.355469 15.515625 20.355469 C 16.253906 20.355469 16.980469 20.445312 16.980469 20.445312 C 16.980469 20.445312 20.296875 11.207031 21.023438 11.09375 C 22.378906 11.128906 20.75 22.15625 20.296875 24.566406 L 25.0625 24.566406 C 25.0625 24.566406 25.863281 15.515625 24.335938 5.851562 L 19.921875 5.851562 C 19.082031 5.859375 15.886719 11.46875 15.519531 11.46875 C 15.152344 11.46875 11.953125 5.859375 11.113281 5.851562 Z M 6.699219 5.851562 "/>
<path style=" stroke:none;fill-rule:nonzero;fill:url(#radial0);" d="M 14.578125 23.441406 C 14.578125 24.0625 14.070312 24.566406 13.449219 24.566406 C 12.824219 24.566406 12.320312 24.0625 12.320312 23.441406 C 12.320312 22.816406 12.828125 22.3125 13.449219 22.3125 C 14.070312 22.3125 14.578125 22.816406 14.578125 23.441406 Z M 14.578125 23.441406 "/>
<path style=" stroke:none;fill-rule:nonzero;fill:url(#radial1);" d="M 18.714844 23.441406 C 18.714844 24.0625 18.210938 24.566406 17.585938 24.566406 C 16.964844 24.566406 16.460938 24.0625 16.460938 23.441406 C 16.460938 22.816406 16.964844 22.3125 17.585938 22.3125 C 18.210938 22.3125 18.714844 22.816406 18.714844 23.441406 Z M 18.714844 23.441406 "/>
<use xlink:href="#surface5" mask="url(#mask0)"/>
<use xlink:href="#surface8" mask="url(#mask1)"/>
</g>
</svg>

<svg xmlns:xlink="http://www.w3.org/1999/xlink" role="img" viewBox="0 0 32 32" xmlns="http://www.w3.org/2000/svg"><defs><radialGradient cx=".41" cy=".43" fx=".41" fy=".43" gradientTransform="matrix(2.25781 0 0 2.2539 12.32 22.313)" gradientUnits="userSpaceOnUse" id="g" r=".5"><stop offset="0" style="stop-color:rgb(85.882354%,48.627451%,48.627451%);stop-opacity:1"/><stop offset="1" style="stop-color:rgb(78.431374%,21.568628%,21.568628%);stop-opacity:1"/></radialGradient><radialGradient cx=".44" cy=".43" fx=".44" fy=".43" gradientTransform="translate(16.46 22.313)scale(2.2539)" gradientUnits="userSpaceOnUse" id="h" r=".5"><stop offset="0" style="stop-color:rgb(85.882354%,48.627451%,48.627451%);stop-opacity:1"/><stop offset="1" style="stop-color:rgb(78.431374%,21.568628%,21.568628%);stop-opacity:1"/></radialGradient><linearGradient gradientTransform="scale(31.03125)" gradientUnits="userSpaceOnUse" id="e" x1=".5" x2=".5" y1="1" y2="0"><stop offset="0" style="stop-color:rgb(34.117648%,29.803923%,29.019609%);stop-opacity:1"/><stop offset="1" style="stop-color:rgb(50.196081%,44.313726%,42.745098%);stop-opacity:1"/></linearGradient><linearGradient gradientTransform="matrix(19.50781 0 0 18.71484 5.766 5.852)" gradientUnits="userSpaceOnUse" id="f" x1=".887" x2=".301" y1=".984" y2="-.087"><stop offset="0" style="stop-color:rgb(14.901961%,55.29412%,51.372552%);stop-opacity:1"/><stop offset="1" style="stop-color:rgb(18.039216%,63.137257%,61.960787%);stop-opacity:1"/></linearGradient><clipPath id="c"><use xlink:href="#a"/></clipPath><clipPath id="d"><use xlink:href="#a"/></clipPath><mask id="j"><g filter="url(#b)"><use xlink:href="#a" style="fill:rgb(0%,0%,0%);fill-opacity:0.1;stroke:none"/></g></mask><mask id="l"><g filter="url(#b)"><use xlink:href="#a" style="fill:rgb(0%,0%,0%);fill-opacity:0.3;stroke:none"/></g></mask><g clip-path="url(#c)" id="i"><path d="M24.11 6.172c.69 4.656.85 9.125.84 12.457-.016 3.402-.212 5.617-.212 5.617h-4.011l-.434.324h4.77s.796-9.05-.727-18.718Zm-12.633-.117c1.253 1.39 3.421 5.09 3.718 5.09-.797-1.016-2.746-4.258-3.718-5.09M9.69 10.77c-1.355.039.274 11.062.727 13.476H6.254l-.281.324h4.765c-.449-2.402-2.062-13.328-.746-13.476-.12-.184-.226-.313-.3-.324m11.008 0c-.722.117-4.039 9.355-4.039 9.355s-.73-.09-1.465-.09c-.355 0-.707.016-1.062.047l-.078.367s.73-.094 1.465-.094c.734 0 1.464.094 1.464.094s3.29-9.18 4.032-9.355c-.082-.203-.18-.32-.313-.324Zm0 0" style="stroke:none;fill-rule:nonzero;fill:rgb(0%,0%,0%);fill-opacity:1"/></g><g clip-path="url(#d)" id="k"><path d="M6.7 5.852c-1.524 9.668-.727 18.714-.727 18.714l.28-.312c-.144-2.137-.526-9.86.77-18.078h4.415c.093 0 .218.074.363.199-.29-.32-.531-.523-.688-.523Zm13.222 0c-.84.007-4.035 5.617-4.402 5.617.148.191.27.324.32.324.367 0 3.566-5.61 4.406-5.617h3.895l.195-.324Zm-9.606 5.566c1.07 1.61 3.739 9.031 3.739 9.031l.078-.363c-.66-1.805-3.168-8.57-3.797-8.668zm11.032 0c.718 1.832-.645 10.98-1.051 13.148l.433-.336c.551-3.238 1.88-12.78.618-12.812m0 0" style="stroke:none;fill-rule:nonzero;fill:rgb(100%,100%,100%);fill-opacity:1"/></g><filter filterUnits="objectBoundingBox" height="100%" id="b" width="100%" x="0%" y="0%"><feColorMatrix in="SourceGraphic" values="0 0 0 0 1 0 0 0 0 1 0 0 0 0 1 0 0 0 1 0"/></filter><path d="M0 0h32v32H0z" id="a"/></defs><path d="M0 20.969V10.062C0 1.258 1.258 0 10.055 0h10.922C29.773 0 31.03 1.258 31.03 10.063v10.906c0 8.804-1.258 10.062-10.054 10.062H10.055C1.258 31.031 0 29.773 0 20.97m0 0" style="stroke:none;fill-rule:nonzero;fill:url(#e)"/><path d="M6.7 5.852c-1.524 9.668-.727 18.714-.727 18.714h4.765c-.453-2.41-2.078-13.437-.726-13.472.726.113 4.043 9.351 4.043 9.351s.726-.09 1.46-.09c.739 0 1.465.09 1.465.09s3.317-9.238 4.043-9.351c1.356.035-.273 11.062-.726 13.472h4.765s.801-9.05-.726-18.714h-4.414c-.84.007-4.035 5.617-4.402 5.617-.368 0-3.567-5.61-4.407-5.617Zm0 0" style="stroke:none;fill-rule:nonzero;fill:url(#f)"/><path d="M14.578 23.441a1.129 1.129 0 0 1-2.258 0 1.13 1.13 0 0 1 2.258 0m0 0" style="stroke:none;fill-rule:nonzero;fill:url(#g)"/><path d="M18.715 23.441a1.126 1.126 0 0 1-2.254 0 1.126 1.126 0 1 1 2.254 0m0 0" style="stroke:none;fill-rule:nonzero;fill:url(#h)"/><use xlink:href="#i" mask="url(#j)"/><use xlink:href="#k" mask="url(#l)"/></svg>
